contributed-vectors/manga_dogs.svg

<svg xmlns="http://www.w3.org/2000/svg" xml:space="preserve" style="fill-rule:evenodd;clip-rule:evenodd;stroke-linejoin:round;stroke-miterlimit:2" viewBox="0 0 192 192"><path d="M164.5 21.5c0-5.519-4.481-10-10-10h-133c-5.519 0-10 4.481-10 10v133c0 5.519 4.481 10 10 10h133c5.519 0 10-4.481 10-10v-133Z" style="fill:#f8c18c" transform="translate(8 8)"/><path d="M116.431 57.31c1.627-9.103 2.955-14.395 9.662-15.04 19.361-1.863 30.308 8.429 32.793 17.036 2.322 8.042-7.823 16.472-13.064 8.83-14.208-20.716-19.563-15.18-21.573-7.385a42.81 42.81 0 0 1 19.786 24.407l6.087 19.283a38.66 38.66 0 0 1-36.866 50.297H78.744a38.658 38.658 0 0 1-37.061-49.66l5.703-19.214a42.82 42.82 0 0 1 21.138-25.733c-2.134-7.452-7.577-12.157-21.404 8.005-5.242 7.642-15.387-.788-13.065-8.83 2.486-8.607 13.433-18.899 32.794-17.036 6.612.636 7.996 5.789 9.593 14.658a42.812 42.812 0 0 1 12.014-1.715h14.725c4.589 0 9.048.73 13.25 2.097Z" style="fill:#56595b" transform="matrix(.7905 0 0 .7905 19.74 18.22)"/><path d="M136.693 85.575c-4.219-14.71-16.619-24.711-30.636-24.711H86.639c-14.222 0-26.752 10.29-30.799 25.293l-6.419 23.8c-2.845 10.547-.999 21.953 4.981 30.771 5.98 8.817 15.391 14.01 25.389 14.01h33.521c10.094 0 19.584-5.293 25.551-14.252 5.968-8.959 7.698-20.51 4.66-31.103l-6.83-23.808Z" style="fill:#fff" transform="matrix(.75495 0 0 .68605 22.817 27.246)"/><circle cx="75.51" cy="105.726" r="14.184" style="fill:#56595b" transform="matrix(.7905 0 0 .7905 20.485 17.626)"/><circle cx="70.882" cy="100.155" r="4.82" style="fill:#fff" transform="matrix(.8397 0 0 .8397 16.609 13.581)"/><circle cx="70.882" cy="100.155" r="4.82" style="fill:#fff" transform="matrix(.50956 0 0 .50956 48.809 53.15)"/><circle cx="70.882" cy="100.155" r="4.82" style="fill:#fff" transform="translate(66.637 85.7) scale(.22144)"/><circle cx="75.51" cy="105.726" r="14.184" style="fill:#56595b" transform="matrix(.7905 0 0 .7905 53.08 18.152)"/><circle cx="70.882" cy="100.155" r="4.82" style="fill:#fff" transform="matrix(.8397 0 0 .8397 49.204 14.107)"/><circle cx="70.882" cy="100.155" r="4.82" style="fill:#fff" transform="matrix(.50956 0 0 .50956 81.404 53.676)"/><circle cx="70.882" cy="100.155" r="4.82" style="fill:#fff" transform="translate(99.232 86.226) scale(.22144)"/><path d="M68.108 124.077a.365.365 0 0 1 .394.546 51.07 51.07 0 0 1-1.18 1.979.592.592 0 0 1-.96.066l-.001-.001a.427.427 0 0 1-.071-.426c.216-.523.796-1.758 1.818-2.164Z" style="fill:#f8c18c" transform="scale(-.7905) rotate(-58.551 -286.201 184.223)"/><path d="M68.108 124.077a.365.365 0 0 1 .394.546 51.07 51.07 0 0 1-1.18 1.979.592.592 0 0 1-.96.066l-.001-.001a.427.427 0 0 1-.071-.426c.216-.523.796-1.758 1.818-2.164Z" style="fill:#f8c18c" transform="scale(-.7905) rotate(-58.551 -284.83 181.072)"/><path d="M68.108 124.077a.365.365 0 0 1 .394.546 51.07 51.07 0 0 1-1.18 1.979.592.592 0 0 1-.96.066l-.001-.001a.427.427 0 0 1-.071-.426c.216-.523.796-1.758 1.818-2.164Z" style="fill:#f8c18c" transform="scale(-.7905) rotate(-58.551 -283.091 177.971)"/><path d="M68.108 124.077a.365.365 0 0 1 .394.546 51.07 51.07 0 0 1-1.18 1.979.592.592 0 0 1-.96.066l-.001-.001a.427.427 0 0 1-.071-.426c.216-.523.796-1.758 1.818-2.164Z" style="fill:#f8c18c" transform="scale(.7905 -.7905) rotate(-58.551 -163.978 -33.087)"/><path d="M68.108 124.077a.365.365 0 0 1 .394.546 51.07 51.07 0 0 1-1.18 1.979.592.592 0 0 1-.96.066l-.001-.001a.427.427 0 0 1-.071-.426c.216-.523.796-1.758 1.818-2.164Z" style="fill:#f8c18c" transform="matrix(.41243 .67438 .67438 -.41243 -37.038 123.36)"/><path d="M68.108 124.077a.365.365 0 0 1 .394.546 51.07 51.07 0 0 1-1.18 1.979.592.592 0 0 1-.96.066l-.001-.001a.427.427 0 0 1-.071-.426c.216-.523.796-1.758 1.818-2.164Z" style="fill:#f8c18c" transform="matrix(.41243 .67438 .67438 -.41243 -34.29 123.36)"/></svg>

<?xml version="1.0" encoding="UTF-8" standalone="no"?>
<!DOCTYPE svg PUBLIC "-//W3C//DTD SVG 1.1//EN" "http://www.w3.org/Graphics/SVG/1.1/DTD/svg11.dtd">
<svg width="100%" height="100%" viewBox="0 0 192 192" version="1.1" xmlns="http://www.w3.org/2000/svg" xmlns:xlink="http://www.w3.org/1999/xlink" xml:space="preserve" xmlns:serif="http://www.serif.com/" style="fill-rule:evenodd;clip-rule:evenodd;stroke-linejoin:round;stroke-miterlimit:2;">
    <g id="Layer1">
        <g transform="matrix(1,0,0,1,8,8)">
            <path d="M164.5,21.5C164.5,15.981 160.019,11.5 154.5,11.5L21.5,11.5C15.981,11.5 11.5,15.981 11.5,21.5L11.5,154.5C11.5,160.019 15.981,164.5 21.5,164.5L154.5,164.5C160.019,164.5 164.5,160.019 164.5,154.5L164.5,21.5Z" style="fill:rgb(248,193,140);"/>
        </g>
        <g transform="matrix(0.790503,0,0,0.790503,19.7396,18.2195)">
            <g>
                <path d="M116.431,57.31C118.058,48.207 119.386,42.915 126.093,42.27C145.454,40.407 156.401,50.699 158.886,59.306C161.208,67.348 151.063,75.778 145.822,68.136C131.614,47.42 126.259,52.956 124.249,60.751C133.478,65.966 140.687,74.552 144.035,85.158C145.963,91.265 148.041,97.847 150.122,104.441C153.83,116.188 151.718,128.998 144.436,138.933C137.154,148.868 125.574,154.738 113.256,154.738C101.95,154.738 90.014,154.738 78.744,154.738C66.544,154.738 55.059,148.979 47.762,139.201C40.464,129.423 38.211,116.774 41.683,105.078C43.628,98.524 45.574,91.968 47.386,85.864C50.756,74.51 58.538,65.383 68.524,60.131C66.39,52.679 60.947,47.974 47.12,68.136C41.878,75.778 31.733,67.348 34.055,59.306C36.541,50.699 47.488,40.407 66.849,42.27C73.461,42.906 74.845,48.059 76.442,56.928C80.276,55.808 84.313,55.213 88.456,55.213L103.181,55.213C107.77,55.213 112.229,55.943 116.431,57.31Z" style="fill:rgb(86,89,91);"/>
            </g>
            <g transform="matrix(0.95502,0,0,0.867868,3.89357,11.4184)">
                <path d="M136.693,85.575C132.474,70.865 120.074,60.864 106.057,60.864C99.763,60.864 92.955,60.864 86.639,60.864C72.417,60.864 59.887,71.154 55.84,86.157C53.856,93.514 51.627,101.779 49.421,109.957C46.576,120.504 48.422,131.91 54.402,140.728C60.382,149.545 69.793,154.738 79.791,154.738C90.674,154.738 102.391,154.738 113.312,154.738C123.406,154.738 132.896,149.445 138.863,140.486C144.831,131.527 146.561,119.976 143.523,109.383C141.169,101.177 138.796,92.906 136.693,85.575Z" style="fill:white;"/>
            </g>
            <g>
                <g transform="matrix(1,0,0,1,0.942758,-0.750396)">
                    <circle cx="75.51" cy="105.726" r="14.184" style="fill:rgb(86,89,91);"/>
                </g>
                <g transform="matrix(1.06223,0,0,1.06223,-3.96042,-5.86719)">
                    <circle cx="70.882" cy="100.155" r="4.82" style="fill:white;"/>
                </g>
                <g transform="matrix(0.644606,0,0,0.644606,36.7733,44.1875)">
                    <circle cx="70.882" cy="100.155" r="4.82" style="fill:white;"/>
                </g>
                <g transform="matrix(0.280126,0,0,0.280126,59.3255,85.3643)">
                    <circle cx="70.882" cy="100.155" r="4.82" style="fill:white;"/>
                </g>
            </g>
            <g transform="matrix(1,0,0,1,41.2338,0.665273)">
                <g transform="matrix(1,0,0,1,0.942758,-0.750396)">
                    <circle cx="75.51" cy="105.726" r="14.184" style="fill:rgb(86,89,91);"/>
                </g>
                <g transform="matrix(1.06223,0,0,1.06223,-3.96042,-5.86719)">
                    <circle cx="70.882" cy="100.155" r="4.82" style="fill:white;"/>
                </g>
                <g transform="matrix(0.644606,0,0,0.644606,36.7733,44.1875)">
                    <circle cx="70.882" cy="100.155" r="4.82" style="fill:white;"/>
                </g>
                <g transform="matrix(0.280126,0,0,0.280126,59.3255,85.3643)">
                    <circle cx="70.882" cy="100.155" r="4.82" style="fill:white;"/>
                </g>
            </g>
            <g>
                <g transform="matrix(-0.521736,0.853107,-0.853107,-0.521736,269.071,133.005)">
                    <path d="M68.108,124.077C68.252,124.043 68.401,124.099 68.487,124.219C68.573,124.338 68.579,124.498 68.502,124.623C68.178,125.214 67.678,126.025 67.322,126.602C67.222,126.764 67.05,126.869 66.859,126.882C66.669,126.895 66.484,126.816 66.362,126.668C66.362,126.668 66.361,126.668 66.361,126.667C66.262,126.548 66.235,126.386 66.29,126.241C66.506,125.718 67.086,124.483 68.108,124.077Z" style="fill:rgb(248,193,140);"/>
                </g>
                <g transform="matrix(-0.521736,0.853107,-0.853107,-0.521736,265.727,133.342)">
                    <path d="M68.108,124.077C68.252,124.043 68.401,124.099 68.487,124.219C68.573,124.338 68.579,124.498 68.502,124.623C68.178,125.214 67.678,126.025 67.322,126.602C67.222,126.764 67.05,126.869 66.859,126.882C66.669,126.895 66.484,126.816 66.362,126.668C66.362,126.668 66.361,126.668 66.361,126.667C66.262,126.548 66.235,126.386 66.29,126.241C66.506,125.718 67.086,124.483 68.108,124.077Z" style="fill:rgb(248,193,140);"/>
                </g>
                <g transform="matrix(-0.521736,0.853107,-0.853107,-0.521736,262.25,133.342)">
                    <path d="M68.108,124.077C68.252,124.043 68.401,124.099 68.487,124.219C68.573,124.338 68.579,124.498 68.502,124.623C68.178,125.214 67.678,126.025 67.322,126.602C67.222,126.764 67.05,126.869 66.859,126.882C66.669,126.895 66.484,126.816 66.362,126.668C66.362,126.668 66.361,126.668 66.361,126.667C66.262,126.548 66.235,126.386 66.29,126.241C66.506,125.718 67.086,124.483 68.108,124.077Z" style="fill:rgb(248,193,140);"/>
                </g>
            </g>
            <g transform="matrix(-1,0,0,1,193.902,-0.337426)">
                <g transform="matrix(-0.521736,0.853107,-0.853107,-0.521736,269.071,133.005)">
                    <path d="M68.108,124.077C68.252,124.043 68.401,124.099 68.487,124.219C68.573,124.338 68.579,124.498 68.502,124.623C68.178,125.214 67.678,126.025 67.322,126.602C67.222,126.764 67.05,126.869 66.859,126.882C66.669,126.895 66.484,126.816 66.362,126.668C66.362,126.668 66.361,126.668 66.361,126.667C66.262,126.548 66.235,126.386 66.29,126.241C66.506,125.718 67.086,124.483 68.108,124.077Z" style="fill:rgb(248,193,140);"/>
                </g>
                <g transform="matrix(-0.521736,0.853107,-0.853107,-0.521736,265.727,133.342)">
                    <path d="M68.108,124.077C68.252,124.043 68.401,124.099 68.487,124.219C68.573,124.338 68.579,124.498 68.502,124.623C68.178,125.214 67.678,126.025 67.322,126.602C67.222,126.764 67.05,126.869 66.859,126.882C66.669,126.895 66.484,126.816 66.362,126.668C66.362,126.668 66.361,126.668 66.361,126.667C66.262,126.548 66.235,126.386 66.29,126.241C66.506,125.718 67.086,124.483 68.108,124.077Z" style="fill:rgb(248,193,140);"/>
                </g>
                <g transform="matrix(-0.521736,0.853107,-0.853107,-0.521736,262.25,133.342)">
                    <path d="M68.108,124.077C68.252,124.043 68.401,124.099 68.487,124.219C68.573,124.338 68.579,124.498 68.502,124.623C68.178,125.214 67.678,126.025 67.322,126.602C67.222,126.764 67.05,126.869 66.859,126.882C66.669,126.895 66.484,126.816 66.362,126.668C66.362,126.668 66.361,126.668 66.361,126.667C66.262,126.548 66.235,126.386 66.29,126.241C66.506,125.718 67.086,124.483 68.108,124.077Z" style="fill:rgb(248,193,140);"/>
                </g>
            </g>
        </g>
    </g>
</svg>
